packages/core/src/svgs/tokens/branded/WNDR.svg

<svg width="24" height="24" viewBox="0 0 24 24" fill="none" xmlns="http://www.w3.org/2000/svg">
<path d="M6.12721 4.8949L9.86398 6.96328C9.50609 7.30538 8.79557 8.25273 8.79557 9.28957C8.79557 10.3211 9.50609 11.2684 9.86398 11.6106H11.2008L12.0008 13.1632L12.8007 11.6106H14.1376C14.4008 11.2684 14.9902 10.3211 15.206 9.28957C15.4165 8.25273 14.585 7.30538 14.1376 6.96328L17.8744 4.8949L19.748 6.96328L16.806 9.28957L20.2795 7.73695C20.9464 8.25525 21.4177 8.98445 21.6164 9.80535L17.6112 11.6106L21.8848 10.579C22.0953 11.2 21.969 12.3895 21.8848 12.9053L17.8744 13.679H21.6111C20.9231 15.2592 19.6931 16.5415 18.1427 17.2947C17.3428 16.4368 15.5797 14.7684 14.9375 14.9737C14.2955 15.1789 15.9165 17.8156 16.806 19.1051C16.1691 18.4841 14.9375 17.9841 14.406 17.8156L13.6008 15.2316V17.8105H12.2692L12.0008 15.2316L11.7376 17.8105H10.6639V15.2316L9.86398 17.8105C9.22189 17.8105 7.88507 18.7578 7.26403 19.1051C8.06401 17.9841 9.4903 15.3841 9.064 14.9737C8.63768 14.5579 6.56931 16.3473 5.59037 17.2947L2.38517 13.6843H6.39036L2.11676 12.9106C1.90623 11.8737 2.02729 10.9263 2.11676 10.5843L6.65877 11.6159L2.38517 9.81063C2.61588 8.93005 3.07736 8.127 3.722 7.48432L7.19561 9.29485L4.25356 6.96854C4.75316 6.17392 5.38715 5.47225 6.12721 4.8949Z" fill="#EF4035"/>
<path d="M12.0011 12.6474L11.4643 11.3527H9.86426C10.5064 10.3211 10.6642 8.3422 10.6642 7.47906L13.3379 8.51062H12.0011C12.2642 8.77377 13.3379 8.77377 13.6011 8.77377C13.8694 8.77377 14.6695 8.77377 14.6695 9.28957C14.6695 9.70011 14.3168 10.1475 14.1379 10.3211C13.78 9.8896 12.9642 9.07903 12.5327 9.28957C12.1116 9.49478 13.2484 10.7527 13.8694 11.3527H12.5327L12.0011 12.6474Z" fill="#EF4035"/>
</svg>

<svg xmlns="http://www.w3.org/2000/svg" width="24" height="24" fill="none" viewBox="0 0 24 24">
    <path fill="#EF4035" d="m6.127 4.895 3.737 2.068c-.358.342-1.068 1.29-1.068 2.327 0 1.031.71 1.978 1.068 2.32h1.337l.8 1.553.8-1.552h1.337c.263-.343.852-1.29 1.068-2.321.21-1.037-.621-1.985-1.068-2.327l3.736-2.068 1.874 2.068-2.942 2.327 3.473-1.553a3.73 3.73 0 0 1 1.337 2.068l-4.005 1.806 4.274-1.032c.21.621.084 1.81 0 2.326l-4.01.774h3.736a7.23 7.23 0 0 1-3.468 3.616c-.8-.858-2.563-2.527-3.206-2.321-.641.205.98 2.842 1.869 4.131-.637-.62-1.869-1.12-2.4-1.29l-.805-2.583v2.579h-1.332l-.268-2.58-.263 2.58h-1.074v-2.58l-.8 2.58c-.642 0-1.979.947-2.6 1.294.8-1.12 2.226-3.72 1.8-4.131-.426-.416-2.495 1.373-3.474 2.32l-3.205-3.61H6.39l-4.273-.773c-.21-1.037-.09-1.985 0-2.327l4.542 1.032L2.385 9.81a5.1 5.1 0 0 1 1.337-2.327l3.474 1.81L4.254 6.97a8.1 8.1 0 0 1 1.873-2.074"/>
    <path fill="#EF4035" d="m12.001 12.647-.537-1.294h-1.6c.642-1.032.8-3.01.8-3.874l2.674 1.032H12c.263.263 1.337.263 1.6.263.268 0 1.068 0 1.068.516 0 .41-.352.858-.531 1.031-.358-.431-1.174-1.242-1.605-1.031-.421.205.715 1.463 1.336 2.063h-1.336z"/>
</svg>
